_includes/icons/color-pay-wall.svg

<svg fill="#666" height="50" viewBox="0 0 48 48" width="50" xmlns="http://www.w3.org/2000/svg"><path d="m41 35c0 .554688-.445312 1-1 1h-34c-.554687 0-1-.445312-1-1v-28c0-.554687.445313-1 1-1h34c.554688 0 1 .445313 1 1z" fill="#455a64"/><path d="m26 35c0 .554688-.445312 1-1 1h-11c-.554687 0-1-.445312-1-1v-4c0-.554687.445313-1 1-1h11c.554688 0 1 .445313 1 1zm15-4c0-.554687-.445312-1-1-1h-11c-.554687 0-1 .445313-1 1v4c0 .554688.445313 1 1 1h11c.554688 0 1-.445312 1-1zm-8-8c0-.554687-.445312-1-1-1h-11c-.554687 0-1 .445313-1 1v4c0 .554688.445313 1 1 1h11c.554688 0 1-.445312 1-1zm-28 4c0 .554688.445313 1 1 1h11c.554688 0 1-.445312 1-1v-4c0-.554687-.445312-1-1-1h-11c-.554687 0-1 .445313-1 1zm36-5h-5c-.554687 0-1 .445313-1 1v4c0 .554688.445313 1 1 1h5zm-31 8h-5v5c0 .550781.449219 1 1 1h4c.550781 0 1-.449219 1-1v-4c0-.550781-.449219-1-1-1zm16-15c0-.554687-.445312-1-1-1h-11c-.554687 0-1 .445313-1 1v4c0 .554688.445313 1 1 1h11c.554688 0 1-.445312 1-1zm15 0c0-.554687-.445312-1-1-1h-11c-.554687 0-1 .445313-1 1v4c0 .554688.445313 1 1 1h11c.554688 0 1-.445312 1-1zm-8-8c0-.554687-.445312-1-1-1h-11c-.554687 0-1 .445313-1 1v4c0 .554688.445313 1 1 1h11c.554688 0 1-.445312 1-1zm-28 4c0 .554688.445313 1 1 1h11c.554688 0 1-.445312 1-1v-4c0-.554687-.445312-1-1-1h-11c-.554687 0-1 .445313-1 1zm35-5h-4c-.550781 0-1 .449219-1 1v4c0 .550781.449219 1 1 1h5v-5c0-.550781-.449219-1-1-1zm-30 8h-5v6h5c.554688 0 1-.445312 1-1v-4c0-.554687-.445312-1-1-1z" fill="#90a4ae"/><path d="m43 33c0 5.5-4.5 10-10 10s-10-4.5-10-10 4.5-10 10-10 10 4.5 10 10" fill="#ff9800"/><path d="m39 29c0 5.5-4.5 10-10 10s-10-4.5-10-10 4.5-10 10-10 10 4.5 10 10z" fill="#ffc107"/><path d="m41 29c0-.773437-.078125-1.523437-.21875-2.257812-.828125-1.023438-1.84375-1.882813-3.003906-2.519532.777344 1.421875 1.222656 3.050782 1.222656 4.777344 0 5.5-4.5 10-10 10-1.726562 0-3.355469-.445312-4.777344-1.222656.636719 1.160156 1.5 2.175781 2.519532 3.003906.734375.140625 1.484375.21875 2.257812.21875 6.617188 0 12-5.382812 12-12z" fill="#f57f17"/><path d="m25.273438 29.015625.675781-6.015625h6.625v1.96875h-4.445313l-.242187 2.535156c.511719-.296875 1.042969-.445312 1.589844-.445312 1.125 0 1.996093.34375 2.609375 1.039062.609375.695313.914062 1.675782.914062 2.941407 0 1.1875-.363281 2.144531-1.089844 2.871093-.726562.726563-1.699218 1.089844-2.914062 1.089844-.722656 0-1.390625-.148437-2.003906-.441406-.613282-.296875-1.097657-.707031-1.453125-1.234375-.351563-.523438-.53125-1.121094-.539063-1.789063h2.632813c.042968.5.183593.886719.421875 1.160157.238281.273437.546875.410156.921875.410156.4375 0 .777343-.183594 1.015625-.550781.238281-.367188.355468-.914063.355468-1.644532 0-.683593-.144531-1.199218-.425781-1.550781-.285156-.347656-.6875-.519531-1.199219-.519531-.503906 0-.890625.148437-1.167968.445312l-.167969.203125z" fill="#fff8e1"/></svg>

<svg xmlns="http://www.w3.org/2000/svg" viewBox="0 0 48 48" width="50" height="50" fill="#666"><path d="M 41 35 C 41 35.554688 40.554688 36 40 36 L 6 36 C 5.445313 36 5 35.554688 5 35 L 5 7 C 5 6.445313 5.445313 6 6 6 L 40 6 C 40.554688 6 41 6.445313 41 7 Z" fill="#455a64"/><path d="M 26 35 C 26 35.554688 25.554688 36 25 36 L 14 36 C 13.445313 36 13 35.554688 13 35 L 13 31 C 13 30.445313 13.445313 30 14 30 L 25 30 C 25.554688 30 26 30.445313 26 31 Z M 41 31 C 41 30.445313 40.554688 30 40 30 L 29 30 C 28.445313 30 28 30.445313 28 31 L 28 35 C 28 35.554688 28.445313 36 29 36 L 40 36 C 40.554688 36 41 35.554688 41 35 Z M 33 23 C 33 22.445313 32.554688 22 32 22 L 21 22 C 20.445313 22 20 22.445313 20 23 L 20 27 C 20 27.554688 20.445313 28 21 28 L 32 28 C 32.554688 28 33 27.554688 33 27 Z M 5 27 C 5 27.554688 5.445313 28 6 28 L 17 28 C 17.554688 28 18 27.554688 18 27 L 18 23 C 18 22.445313 17.554688 22 17 22 L 6 22 C 5.445313 22 5 22.445313 5 23 Z M 41 22 L 36 22 C 35.445313 22 35 22.445313 35 23 L 35 27 C 35 27.554688 35.445313 28 36 28 L 41 28 Z M 10 30 L 5 30 L 5 35 C 5 35.550781 5.449219 36 6 36 L 10 36 C 10.550781 36 11 35.550781 11 35 L 11 31 C 11 30.449219 10.550781 30 10 30 Z M 26 15 C 26 14.445313 25.554688 14 25 14 L 14 14 C 13.445313 14 13 14.445313 13 15 L 13 19 C 13 19.554688 13.445313 20 14 20 L 25 20 C 25.554688 20 26 19.554688 26 19 Z M 41 15 C 41 14.445313 40.554688 14 40 14 L 29 14 C 28.445313 14 28 14.445313 28 15 L 28 19 C 28 19.554688 28.445313 20 29 20 L 40 20 C 40.554688 20 41 19.554688 41 19 Z M 33 7 C 33 6.445313 32.554688 6 32 6 L 21 6 C 20.445313 6 20 6.445313 20 7 L 20 11 C 20 11.554688 20.445313 12 21 12 L 32 12 C 32.554688 12 33 11.554688 33 11 Z M 5 11 C 5 11.554688 5.445313 12 6 12 L 17 12 C 17.554688 12 18 11.554688 18 11 L 18 7 C 18 6.445313 17.554688 6 17 6 L 6 6 C 5.445313 6 5 6.445313 5 7 Z M 40 6 L 36 6 C 35.449219 6 35 6.449219 35 7 L 35 11 C 35 11.550781 35.449219 12 36 12 L 41 12 L 41 7 C 41 6.449219 40.550781 6 40 6 Z M 10 14 L 5 14 L 5 20 L 10 20 C 10.554688 20 11 19.554688 11 19 L 11 15 C 11 14.445313 10.554688 14 10 14 Z" fill="#90a4ae"/><path d="M 43 33 C 43 38.5 38.5 43 33 43 C 27.5 43 23 38.5 23 33 C 23 27.5 27.5 23 33 23 C 38.5 23 43 27.5 43 33" fill="#ff9800"/><path d="M 39 29 C 39 34.5 34.5 39 29 39 C 23.5 39 19 34.5 19 29 C 19 23.5 23.5 19 29 19 C 34.5 19 39 23.5 39 29 Z" fill="#ffc107"/><path d="M 41 29 C 41 28.226563 40.921875 27.476563 40.78125 26.742188 C 39.953125 25.71875 38.9375 24.859375 37.777344 24.222656 C 38.554688 25.644531 39 27.273438 39 29 C 39 34.5 34.5 39 29 39 C 27.273438 39 25.644531 38.554688 24.222656 37.777344 C 24.859375 38.9375 25.722656 39.953125 26.742188 40.78125 C 27.476563 40.921875 28.226563 41 29 41 C 35.617188 41 41 35.617188 41 29 Z" fill="#f57f17"/><path d="M 25.273438 29.015625 L 25.949219 23 L 32.574219 23 L 32.574219 24.96875 L 28.128906 24.96875 L 27.886719 27.503906 C 28.398438 27.207031 28.929688 27.058594 29.476563 27.058594 C 30.601563 27.058594 31.472656 27.402344 32.085938 28.097656 C 32.695313 28.792969 33 29.773438 33 31.039063 C 33 32.226563 32.636719 33.183594 31.910156 33.910156 C 31.183594 34.636719 30.210938 35 28.996094 35 C 28.273438 35 27.605469 34.851563 26.992188 34.558594 C 26.378906 34.261719 25.894531 33.851563 25.539063 33.324219 C 25.1875 32.800781 25.007813 32.203125 25 31.535156 L 27.632813 31.535156 C 27.675781 32.035156 27.816406 32.421875 28.054688 32.695313 C 28.292969 32.96875 28.601563 33.105469 28.976563 33.105469 C 29.414063 33.105469 29.753906 32.921875 29.992188 32.554688 C 30.230469 32.1875 30.347656 31.640625 30.347656 30.910156 C 30.347656 30.226563 30.203125 29.710938 29.921875 29.359375 C 29.636719 29.011719 29.234375 28.839844 28.722656 28.839844 C 28.21875 28.839844 27.832031 28.988281 27.554688 29.285156 L 27.386719 29.488281 Z" fill="#fff8e1"/></svg>
